svg/US/IA.svg

<?xml version="1.0" encoding="UTF-8" standalone="no"?>
<svg width="90px" height="65px" viewBox="0 0 90 65" version="1.1" xmlns="http://www.w3.org/2000/svg" xmlns:xlink="http://www.w3.org/1999/xlink">
    <!-- Generator: Sketch 3.7.2 (28276) - http://www.bohemiancoding.com/sketch -->
    <title>Iowa</title>
    <desc>Created with Sketch.</desc>
    <defs></defs>
    <g id="Page-1" stroke="none" stroke-width="1" fill="none" fill-rule="evenodd">
        <g id="Iowa">
            <g id="Page-1">
                <polygon id="Fill-1" fill="#F1F2F2" points="23 65 66.999 65 66.999 0 23 0"></polygon>
                <g id="Group-20">
                    <path d="M80,65 L67,65 L67,0 L80,0 C85.523,0 90,4.477 90,10 L90,55 C90,60.523 85.523,65 80,65" id="Fill-2" fill="#CF1B2B"></path>
                    <path d="M23,65 L10,65 C4.477,65 0,60.523 0,55 L0,10 C0,4.477 4.477,0 10,0 L23,0 L23,65 Z" id="Fill-4" fill="#00247D"></path>
                    <polygon id="Fill-6" fill-opacity="0.5" fill="#CF1B2B" points="36 55 54 55 54 48 36 48"></polygon>
                    <path id="Fill-8" fill="#00247D"></path>
                    <path d="M49.6834,25.6232 L49.6814,25.6232 C49.6954,25.6242 49.7034,25.6252 49.6834,25.6232 M45.9744,23.4042 L45.9734,23.4022 L45.5324,23.3572 C41.2174,29.6412 45.6174,34.4502 39.7004,37.0152 L39.4264,34.7982 L37.5764,33.8232 L33.2404,36.0662 C33.0664,35.2362 32.7474,34.5422 32.0104,33.9602 C34.9974,33.1012 37.5694,32.6402 39.5394,30.7562 L38.8464,28.6012 L30.1774,27.1822 L35.1114,23.2452 L34.5784,22.4522 L26.5814,26.9302 L27.0614,29.1542 C27.0624,29.1542 34.8174,30.4922 34.8174,30.4922 C31.6194,31.5542 28.2874,31.9252 26.3084,34.1122 L27.7574,36.1302 C30.6424,34.9722 30.9554,36.2542 30.7404,37.9642 L32.5874,39.2732 L37.1214,36.9272 L37.3704,38.9352 L38.9974,40.0002 C43.0864,38.7422 44.9674,36.7612 44.9724,32.4072 C44.9694,29.8382 44.4494,27.1642 45.6534,24.2862 C47.6354,31.1712 55.7534,25.3382 60.5574,25.3872 C59.8744,26.3412 59.4684,27.4012 59.4944,28.5832 C56.2604,27.5012 52.9084,28.0542 49.7254,29.3132 L49.3654,31.4562 C51.1304,33.0482 51.1524,34.5382 48.9664,35.7422 L48.9544,37.9852 C51.2394,39.2162 56.1934,40.1752 61.0714,36.9232 C61.3204,37.5522 61.7284,38.4302 62.3084,38.7782 C61.8874,37.8632 62.5434,35.7012 62.8754,35.0552 L62.8754,35.0552 L60.8924,34.0322 C58.2794,36.1482 55.4424,37.0972 52.1894,36.4212 C53.4004,35.0202 53.6364,33.1302 52.3494,31.1002 C55.5124,30.1942 59.1934,30.3092 61.3894,32.6522 L63.2904,30.9572 C63.2674,30.9312 63.2484,30.9122 63.2274,30.8882 L63.2284,30.8872 C61.5424,29.0732 61.7574,27.1462 63.6614,25.8152 L63.6914,23.7262 C57.1034,18.8642 51.4604,29.8012 45.9744,23.4042" id="Fill-10" fill="#00247D"></path>
                    <path d="M43.1667,19.6121 C43.1667,19.6121 41.9857,14.7391 42.2487,9.9301 C42.3257,8.5341 41.8747,7.1791 41.0437,6.6021 C38.8047,5.0481 33.5237,4.4511 22.9997,17.3181 C22.9997,17.3181 39.3387,14.8811 43.1667,19.6121" id="Fill-12" fill="#594529"></path>
                    <path d="M46.8333,19.6121 C46.8333,19.6121 48.0143,14.7391 47.7513,9.9301 C47.6743,8.5341 48.1253,7.1791 48.9563,6.6021 C51.1953,5.0481 56.4763,4.4511 67.0003,17.3181 C67.0003,17.3181 50.6613,14.8811 46.8333,19.6121" id="Fill-14" fill="#594529"></path>
                    <path d="M55,19.7961 C48.125,16.1711 53.25,14.1711 49,11.7961 C46.646,10.4801 44.448,10.6241 42.953,11.0121 C41.791,11.0681 40.909,11.5021 40.853,11.5311 L40.601,11.6601 L40.455,11.9011 C39.628,13.2601 38.045,16.8721 41.182,21.0551 C42.57,22.9071 44.057,23.8521 45.06,24.3181 C46.087,24.7971 46.82,24.8801 46.9,24.8881 L47.372,24.9351 L47.707,24.6001 C48.564,23.7411 49.155,22.5431 48.961,21.2291 C52.273,21.5451 55,19.7961 55,19.7961" id="Fill-16" fill="#3A2A17"></path>
                    <path d="M46.0693,17.0052 C44.2373,16.3362 42.4053,16.4912 40.5733,17.7022 C40.8253,18.5842 41.2713,19.5082 41.9813,20.4552 C44.3633,23.6312 46.9993,23.8932 46.9993,23.8932 C48.0333,22.8582 48.6583,21.2182 46.8743,19.4232 C46.1383,18.6832 45.9923,17.7952 46.0693,17.0052" id="Fill-18" fill="#F1F2F2"></path>
                </g>
            </g>
        </g>
    </g>
</svg>

<svg width="90" height="65" viewBox="0 0 90 65" xmlns="http://www.w3.org/2000/svg"><title>Iowa</title><g fill="none" fill-rule="evenodd"><path fill="#F1F2F2" d="M23 65h43.999V0H23z"/><path d="M80 65H67V0h13c5.523 0 10 4.477 10 10v45c0 5.523-4.477 10-10 10" fill="#CF1B2B"/><path d="M23 65H10C4.477 65 0 60.523 0 55V10C0 4.477 4.477 0 10 0h13v65z" fill="#00247D"/><path fill-opacity=".5" fill="#CF1B2B" d="M36 55h18v-7H36z"/><path d="M49.683 25.623h-.002c.014.001.022.002.002 0m-3.709-2.219v-.002l-.442-.045c-4.315 6.284.085 11.093-5.832 13.658l-.274-2.217-1.85-.975-4.336 2.243c-.174-.83-.493-1.524-1.23-2.106 2.987-.859 5.56-1.32 7.53-3.204l-.694-2.155-8.669-1.419 4.934-3.937-.533-.793-7.997 4.478.48 2.224 7.756 1.338c-3.198 1.062-6.53 1.433-8.509 3.62l1.45 2.018c2.884-1.158 3.197.124 2.982 1.834l1.847 1.31 4.534-2.347.25 2.008L38.996 40c4.09-1.258 5.97-3.239 5.975-7.593-.003-2.569-.523-5.243.681-8.12 1.982 6.884 10.1 1.051 14.904 1.1-.683.954-1.089 2.014-1.063 3.196-3.234-1.082-6.586-.529-9.769.73l-.36 2.143c1.765 1.592 1.787 3.082-.399 4.286l-.012 2.243c2.285 1.231 7.24 2.19 12.117-1.062.25.63.657 1.507 1.237 1.855-.42-.915.235-3.077.567-3.723l-1.983-1.023c-2.613 2.116-5.45 3.065-8.703 2.39 1.211-1.402 1.447-3.292.16-5.322 3.163-.906 6.844-.79 9.04 1.552l1.901-1.695-.063-.069h.001c-1.686-1.815-1.47-3.742.433-5.073l.03-2.089c-6.588-4.862-12.23 6.075-17.717-.322" fill="#00247D"/><path d="M43.167 19.612s-1.181-4.873-.918-9.682c.077-1.396-.374-2.75-1.205-3.328-2.24-1.554-7.52-2.15-18.044 10.716 0 0 16.339-2.437 20.167 2.294M46.833 19.612s1.181-4.873.918-9.682c-.077-1.396.374-2.75 1.205-3.328 2.24-1.554 7.52-2.15 18.044 10.716 0 0-16.339-2.437-20.167 2.294" fill="#594529"/><path d="M55 19.796c-6.875-3.625-1.75-5.625-6-8-2.354-1.316-4.552-1.172-6.047-.784a5.667 5.667 0 0 0-2.1.52l-.252.128-.146.241c-.827 1.36-2.41 4.971.727 9.154 1.388 1.852 2.875 2.797 3.878 3.263 1.027.48 1.76.562 1.84.57l.472.047.335-.335c.857-.859 1.448-2.057 1.254-3.37 3.312.315 6.039-1.434 6.039-1.434" fill="#3A2A17"/><path d="M46.07 17.005c-1.833-.669-3.665-.514-5.497.697.252.882.698 1.806 1.408 2.753C44.363 23.631 47 23.893 47 23.893c1.034-1.035 1.66-2.675-.125-4.47-.736-.74-.882-1.628-.805-2.418" fill="#F1F2F2"/></g></svg>
